X: 1
T: Looney's
M: 12/8
L: 1/8
R: slide
K: Dmix
|:D3 A2D E2D A2D|G2B A2G E2D G3|
BdB A2D EFG A2B|G2B A2B G2E D3:|
|:ddd d2c A2d c2A|G2B d2B A2B d3|
e2c d2B A2d c2A|G2B A2B G2E D3:|
